X: 11836
T: Els'
R: barndance
M: 4/4
K: Dmajor
fdAd f4|gece g4|fdAd f2 de|fd e2 d4||
a3 g fg a2|efgf ef g2|a3 g fg a2|defd e2 d2||

